X:1
T:RVW2/1/72 Three Weeks Before Easter
T:RVW2/1/72 Three Weeks Before Easter
T:Transcribed by Simon Furey and Lewis Jones
C:Transcribed by Simon Furey and Lewis Jones
L:1/8
Q:1/4=80
M:3/4
K:C
V:1 treble 
V:1
 G2 | d2 c2 G2 | d2 c2 G2 | c2 de f2 | g4 e2 | f2 e2 d2 | a2 e2 c2 | d2 c2 B2 | c4 e2 | f2 a2 g2 | %10
 f2 e2 d2 | a2 g2 c2 | (c2 B2) G2 | A2 c2 G2 | f2 e2 c2 | AB c4 |] %16

